X: 30
M: 6/8
L: 1/8
K: G
|:\
vMG3 uMG3 | (AFA) (ABc) | G3 G3 | e(^ce) d(Bd) |\
|:\
def {gf}g2e | f2A (ABA) | d3 gdB | def {gf}gdB |\
def ({gf}gfe) | g2A ABc | dBd (cBA) | G3 G3 :|
fae da kirk an some says it wis annider march at dey played on
da wye fae da kirk.  Dey were leakly bride's marches in every
district o' Shetland at wan time bit a lok o' dem haes been lost,
mair's da peety.


